-----BEGIN PGP SIGNATURE-----

iQIzBAABCAAdFiEElnCzeJiOGKWzDnXXXN6UakFgwikFAmpM3P8ACgkQXN6UakFg
wikZdRAArhLSd40KGMblAYh058cVqsEZdzD1toLk7uCJ5N8J5+ul8KTMX/GE6kHo
JcGZTaYnwRqjJKVqaiaTCvzWTlQcnd8sps+YikDGOhvSzP+jkIg4xwFLsJRM0VHH
WMpnIURmtP/FSTlUubZTI1o88c/JZXPcRLKongYXRot9yxQnGKt9JVDJkXdwS0Zt
1qzdimoREhobvSFILdokHrHgn4kiPkh3WSgQWbVgkfq5TwtgbFaXOnAq+0hLTLX1
FulmX4jXC8zrH49mUd+MU0DvS5UDMQg41AGz+HpkKBg4NC1gsmoUp3Gc3Mn+xpMs
vJBDupZeFcXi4Q4FIj9FcZjiWjDeN42ZDSCv/xWbz7M14yW51y8iGAwlCTzgY51P
QCZKHsRfhhc+qvF1Kl77xSJmbdPYvaDlivwWyJfqoD5Iuqbml8cyCaaFAnFuAUmM
7wQKh7g6c1vHGezfmCdaYAFTNAK25I5TXwgMJljyZOfR0LE1GI8tu+bp93rWNWds
BNvV0GNiJ5jRqQ8rmRKeqWEwAJJQXHL4pYI/wyxRjwUzvzmQvgpoTEnGeiqzR5lZ
jS7LGrO2aoD3fC48G5dKIdBZfllG/vlH4ThdPNtWbrS8XVafr6I0sWTrISQGC9w2
H4Qu8v5fqfRpGti++7096TZ9cBfwQZklW9P8qOYrjKe3xxoD/JQ=
=i8ww
-----END PGP SIGNATURE-----
